;Generated with Cura_SteamEngine 13.12
M109 T0 S210.000000
T0
;Sliced at: Fri 28-02-2014 10:02:24
;Basic settings: Layer height: 0.2 Walls: 0.8 Fill: 20
;Print time: #P_TIME#
;Filament used: #F_AMNT#m #F_WGHT#g
;Filament cost: #F_COST#
;M190 S70 ;Uncomment to add your own bed temperature line
;M109 S210 ;Uncomment to add your own temperature line
G21        ;metric values
G90        ;absolute positioning
M107       ;start with the fan off
G28 X0 Y0  ;move X/Y to min endstops
G28 Z0     ;move Z to min endstops
G1 Z15.0 F6000 ;move the platform down 15mm
G92 E0                  ;zero the extruded length
G1 F200 E3              ;extrude 3mm of feed stock
G92 E0                  ;zero the extruded length again
G1 F6000
;Put printing message on LCD screen
M117 Printing...

;Layer count: 17
;LAYER:0
M107
G0 F1980 X117.00 Y83.46 Z0.30
;TYPE:SKIRT
G1 F2400 E0.00000
G1 F1140 X117.22 Y83.27 E0.01477
G1 X121.09 Y78.55 E0.31903
G1 X121.24 Y78.29 E0.33411
G1 X121.80 Y77.74 E0.37324
G1 X122.05 Y77.59 E0.38805
G1 X126.76 Y73.72 E0.69195
G1 X126.97 Y73.50 E0.70721
G1 X127.64 Y73.04 E0.74773
G1 X127.93 Y72.95 E0.76283
G1 X133.29 Y70.08 E1.06604
G1 X133.52 Y69.90 E1.08073
G1 X134.24 Y69.60 E1.11943
G1 X134.55 Y69.56 E1.13519
G1 X140.40 Y67.78 E1.43979
G1 X140.66 Y67.66 E1.45466
G1 X141.43 Y67.50 E1.49354
G1 X141.73 Y67.51 E1.50877
G1 X147.85 Y66.91 E1.81530
G1 X148.10 Y66.84 E1.82851
G1 X148.88 Y66.84 E1.86713
G1 X149.17 Y66.91 E1.88232
G1 X155.29 Y67.51 E2.18916
G1 X155.55 Y67.50 E2.20200
G1 X156.32 Y67.65 E2.24115
G1 X156.60 Y67.78 E2.25637
G1 X162.44 Y69.55 E2.56084
G1 X162.74 Y69.60 E2.57608
G1 X163.47 Y69.90 E2.61529
G1 X163.71 Y70.08 E2.63026
G1 X169.07 Y72.95 E2.93388
G1 X169.37 Y73.05 E2.94931
G1 X170.04 Y73.50 E2.99008
G1 X170.24 Y73.72 E3.00474
G1 X174.95 Y77.59 E3.30868
G1 X175.21 Y77.74 E3.32366
G1 X175.76 Y78.30 E3.36278
G1 X175.91 Y78.55 E3.37750
G1 X179.78 Y83.26 E3.68162
G1 X180.00 Y83.47 E3.69675
G1 X180.45 Y84.14 E3.73726
G1 X180.55 Y84.43 E3.75222
G1 X183.42 Y89.79 E4.05570
G1 X183.59 Y90.03 E4.07025
G1 X183.90 Y90.74 E4.10895
G1 X183.94 Y91.05 E4.12456
G1 X185.72 Y96.90 E4.42948
G1 X185.84 Y97.16 E4.44416
G1 X186.00 Y97.93 E4.48305
G1 X185.98 Y98.23 E4.49813
G1 X186.59 Y104.34 E4.80466
G1 X186.65 Y104.60 E4.81802
G1 X186.66 Y105.38 E4.85663
G1 X186.59 Y105.67 E4.87167
G1 X185.99 Y111.79 E5.17851
G1 X186.00 Y112.05 E5.19150
G1 X185.85 Y112.82 E5.23065
G1 X185.72 Y113.10 E5.24569
G1 X183.95 Y118.94 E5.55048
G1 X183.90 Y119.24 E5.56557
G1 X183.60 Y119.97 E5.60478
G1 X183.42 Y120.21 E5.61968
G1 X180.55 Y125.58 E5.92346
G1 X180.45 Y125.87 E5.93879
G1 X179.99 Y126.54 E5.97956
G1 X179.78 Y126.74 E5.99408
G1 X175.91 Y131.44 E6.29777
G1 X175.76 Y131.70 E6.31241
G1 X175.20 Y132.26 E6.35202
G1 X174.95 Y132.41 E6.36682
G1 X170.23 Y136.28 E6.67115
G1 X170.03 Y136.50 E6.68623
G1 X169.36 Y136.95 E6.72675
G1 X169.07 Y137.05 E6.74159
G1 X163.71 Y139.92 E7.04525
G1 X163.47 Y140.09 E7.05973
G1 X162.76 Y140.40 E7.09844
G1 X162.45 Y140.44 E7.11395
G1 X156.60 Y142.22 E7.41896
G1 X156.34 Y142.34 E7.43365
G1 X155.57 Y142.50 E7.47248
G1 X155.27 Y142.48 E7.48761
G1 X149.16 Y143.09 E7.79408
G1 X148.90 Y143.15 E7.80750
G1 X148.12 Y143.16 E7.84612
G1 X147.83 Y143.09 E7.86116
G1 X141.71 Y142.49 E8.16800
G1 X141.45 Y142.50 E8.18099
G1 X140.68 Y142.35 E8.22014
G1 X140.40 Y142.22 E8.23522
G1 X134.56 Y140.45 E8.53987
G1 X134.26 Y140.40 E8.55506
G1 X133.53 Y140.10 E8.59427
G1 X133.29 Y139.92 E8.60917
G1 X127.92 Y137.05 E8.91328
G1 X127.63 Y136.95 E8.92827
G1 X126.96 Y136.50 E8.96848
G1 X126.77 Y136.28 E8.98314
G1 X122.05 Y132.41 E9.28761
G1 X121.79 Y132.26 E9.30259
G1 X121.24 Y131.70 E9.34171
G1 X121.09 Y131.45 E9.35641
G1 X117.22 Y126.74 E9.66049
G1 X117.00 Y126.53 E9.67568
G1 X116.54 Y125.86 E9.71620
G1 X116.45 Y125.57 E9.73120
G1 X113.58 Y120.21 E10.03457
G1 X113.40 Y119.97 E10.04919
G1 X113.10 Y119.26 E10.08790
G1 X113.06 Y118.95 E10.10355
G1 X111.28 Y113.10 E10.40832
G1 X111.16 Y112.83 E10.42311
G1 X111.00 Y112.07 E10.46199
G1 X111.01 Y111.77 E10.47717
G1 X110.41 Y105.65 E10.78375
G1 X110.34 Y105.39 E10.79697
G1 X110.34 Y104.62 E10.83558
G1 X110.41 Y104.32 E10.85078
G1 X111.01 Y98.20 E11.15762
G1 X111.00 Y97.95 E11.17045
G1 X111.15 Y97.18 E11.20960
G1 X111.28 Y96.90 E11.22482
G1 X113.05 Y91.06 E11.52925
G1 X113.10 Y90.76 E11.54453
G1 X113.40 Y90.03 E11.58374
G1 X113.58 Y89.79 E11.59882
G1 X116.45 Y84.42 E11.90264
G1 X116.55 Y84.13 E11.91777
G1 X117.00 Y83.46 E11.95798
G1 F2400 E7.45798
G0 F1980 X119.96 Y85.92
;TYPE:WALL-INNER
G1 F2400 E11.95798
G1 F1140 X124.22 Y80.72 E12.29341
G1 X129.42 Y76.45 E12.62914
G1 X132.34 Y74.90 E12.79408
G1 X132.33 Y74.93 E12.79596
G1 X134.61 Y80.00 E13.07310
G1 X135.07 Y80.17 E13.09778
G1 X136.57 Y79.50 E13.17995
G1 X136.89 Y79.29 E13.19915
G1 X137.17 Y79.04 E13.21773
G1 X137.37 Y78.79 E13.23354
G1 X137.58 Y78.45 E13.25367
G1 X137.70 Y78.12 E13.27091
G1 X137.79 Y77.78 E13.28877
G1 X137.82 Y77.41 E13.30708
G1 X137.82 Y77.03 E13.32634
G1 X137.69 Y76.25 E13.36563
G1 X137.57 Y75.83 E13.38727
G1 X137.25 Y75.11 E13.42686
G1 X137.03 Y74.75 E13.44774
G1 X136.79 Y74.45 E13.46680
G1 X136.53 Y74.21 E13.48462
G1 X136.49 Y74.18 E13.48681
G1 X136.18 Y73.96 E13.50569
G1 X135.87 Y73.82 E13.52310
G1 X135.82 Y73.80 E13.52554
G1 X135.45 Y73.69 E13.54456
G1 X135.10 Y73.66 E13.56213
G1 X135.06 Y73.65 E13.56453
G1 X134.61 Y73.68 E13.58677
G1 X135.36 Y73.27 E13.62945
G1 X141.80 Y71.32 E13.96529
G1 X141.86 Y71.32 E13.96789
G1 X148.50 Y70.66 E14.30109
G1 X155.12 Y71.32 E14.63265
G1 X155.18 Y71.32 E14.63574
G1 X155.20 Y71.32 E14.63684
G1 X161.64 Y73.28 E14.97249
G1 X161.69 Y73.31 E14.97534
G1 X167.58 Y76.45 E15.30870
G1 X172.78 Y80.72 E15.64427
G1 X177.05 Y85.92 E15.98001
G1 X180.23 Y91.86 E16.31610
G1 X182.18 Y98.31 E16.65194
G1 X182.18 Y98.36 E16.65454
G1 X182.82 Y104.82 E16.97866
G1 X182.84 Y105.00 E16.98774
G1 X182.18 Y111.62 E17.31930
G1 X182.18 Y111.68 E17.32239
G1 X182.18 Y111.70 E17.32349
G1 X180.22 Y118.14 E17.65914
G1 X180.19 Y118.19 E17.66199
G1 X177.04 Y124.08 E17.99536
G1 X172.78 Y129.28 E18.33102
G1 X167.58 Y133.55 E18.66665
G1 X161.64 Y136.73 E19.00275
G1 X155.19 Y138.68 E19.33859
G1 X155.14 Y138.68 E19.34123
G1 X148.68 Y139.32 E19.66526
G1 X148.50 Y139.34 E19.67438
G1 X141.88 Y138.68 E20.00594
G1 X141.82 Y138.68 E20.00904
G1 X141.80 Y138.68 E20.01013
G1 X135.36 Y136.72 E20.34578
G1 X135.31 Y136.69 E20.34863
G1 X129.42 Y133.54 E20.68213
G1 X124.22 Y129.28 E21.01756
G1 X119.95 Y124.08 E21.35330
G1 X116.77 Y118.14 E21.68939
G1 X114.82 Y111.69 E22.02523
G1 X114.82 Y111.64 E22.02782
G1 X114.18 Y105.17 E22.35245
G1 X114.16 Y105.00 E22.36103
G1 X114.82 Y98.38 E22.69258
G1 X114.82 Y98.32 E22.69568
G1 X114.82 Y98.30 E22.69678
G1 X116.78 Y91.86 E23.03243
G1 X116.81 Y91.81 E23.03528
G1 X119.96 Y85.92 E23.36878
G0 F1980 X130.52 Y93.01
G1 F1140 X129.92 Y94.13 E23.43219
G1 X130.01 Y94.29 E23.44139
G1 X129.75 Y94.44 E23.45667
G1 X129.24 Y95.41 E23.51094
G1 X129.09 Y95.90 E23.53683
G1 X129.20 Y96.04 E23.54553
G1 X129.01 Y96.18 E23.55733
G1 X128.59 Y97.58 E23.62990
G1 X128.70 Y97.72 E23.63917
G1 X128.47 Y97.93 E23.65450
G1 X128.33 Y99.34 E23.72509
G1 X128.45 Y99.47 E23.73406
G1 X128.30 Y99.61 E23.74395
G1 X128.20 Y100.64 E23.79603
G1 X128.20 Y100.70 E23.79893
G1 X128.24 Y101.10 E23.81868
G1 X128.39 Y101.23 E23.82860
G1 X128.27 Y101.36 E23.83757
G1 X128.40 Y102.77 E23.90816
G1 X128.55 Y102.90 E23.91812
G1 X128.42 Y103.06 E23.92809
G1 X128.47 Y103.36 E23.94361
G1 X128.48 Y103.41 E23.94591
G1 X128.81 Y104.52 E24.00377
G1 X129.00 Y104.66 E24.01561
G1 X128.90 Y104.80 E24.02431
G1 X129.27 Y106.00 E24.08664
G1 X129.40 Y106.25 E24.10119
G1 X129.67 Y106.41 E24.11672
G1 X129.57 Y106.57 E24.12596
G1 X130.30 Y107.93 E24.20285
G1 X130.59 Y108.10 E24.21939
G1 X130.64 Y108.10 E24.22204
G1 X130.52 Y108.35 E24.23572
G1 X131.60 Y109.66 E24.32030
G1 X131.84 Y109.78 E24.33376
G1 X132.02 Y109.78 E24.34254
G1 X131.89 Y110.07 E24.35837
G1 X133.14 Y111.35 E24.44767
G1 X133.36 Y111.45 E24.45987
G1 X133.65 Y111.45 E24.47424
G1 X133.53 Y111.75 E24.49030
G1 X134.79 Y113.03 E24.58022
G1 X135.01 Y113.12 E24.59225
G1 X135.30 Y113.12 E24.60657
G1 X135.18 Y113.42 E24.62262
G1 X136.49 Y114.75 E24.71562
G1 X136.71 Y114.84 E24.72765
G1 X137.00 Y114.84 E24.74201
G1 X136.87 Y115.14 E24.75807
G1 X138.14 Y116.42 E24.84796
G1 X138.36 Y116.52 E24.85999
G1 X138.65 Y116.52 E24.87436
G1 X138.52 Y116.81 E24.89041
G1 X139.79 Y118.10 E24.98030
G1 X140.01 Y118.19 E24.99233
G1 X140.30 Y118.19 E25.00665
G1 X140.17 Y118.49 E25.02271
G1 X141.79 Y120.13 E25.13764
G1 X142.29 Y120.13 E25.16264
G1 X143.91 Y118.49 E25.27758
G1 X143.79 Y118.19 E25.29363
G1 X144.07 Y118.19 E25.30800
G1 X144.30 Y118.10 E25.32003
G1 X145.56 Y116.81 E25.40992
G1 X145.44 Y116.52 E25.42598
G1 X145.72 Y116.52 E25.44029
G1 X145.95 Y116.42 E25.45232
G1 X147.21 Y115.14 E25.54225
G1 X147.09 Y114.84 E25.55830
G1 X147.38 Y114.84 E25.57262
G1 X147.60 Y114.75 E25.58463
G1 X148.91 Y113.42 E25.67766
G1 X148.78 Y113.12 E25.69378
G1 X149.07 Y113.12 E25.70810
G1 X149.29 Y113.03 E25.72013
G1 X150.56 Y111.75 E25.81002
G1 X150.43 Y111.45 E25.82608
G1 X150.72 Y111.45 E25.84049
G1 X150.95 Y111.35 E25.85270
G1 X152.19 Y110.07 E25.94200
G1 X152.07 Y109.78 E25.95782
G1 X152.24 Y109.78 E25.96656
G1 X152.49 Y109.66 E25.98001
G1 X153.56 Y108.35 E26.06466
G1 X153.45 Y108.10 E26.07834
G1 X153.50 Y108.10 E26.08088
G1 X153.78 Y107.93 E26.09742
G1 X154.51 Y106.57 E26.17432
G1 X154.41 Y106.42 E26.18345
G1 X154.68 Y106.26 E26.19862
G1 X154.84 Y105.94 E26.21642
G1 X155.18 Y104.80 E26.27591
G1 X155.08 Y104.66 E26.28465
G1 X155.27 Y104.52 E26.29641
G1 X155.61 Y103.40 E26.35485
G1 X155.62 Y103.33 E26.35815
G1 X155.64 Y103.03 E26.37356
G1 X155.53 Y102.90 E26.38185
G1 X155.68 Y102.77 E26.39167
G1 X155.82 Y101.36 E26.46226
G1 X155.70 Y101.23 E26.47123
G1 X155.84 Y101.10 E26.48115
G1 X155.88 Y100.70 E26.50085
G1 X155.88 Y100.64 E26.50380
G1 X155.78 Y99.61 E26.55583
G1 X155.63 Y99.47 E26.56572
G1 X155.75 Y99.34 E26.57472
G1 X155.61 Y97.93 E26.64531
G1 X155.39 Y97.72 E26.66064
G1 X155.50 Y97.58 E26.66991
G1 X155.07 Y96.18 E26.74248
G1 X154.88 Y96.04 E26.75428
G1 X154.99 Y95.90 E26.76298
G1 X154.82 Y95.35 E26.79188
G1 X154.33 Y94.44 E26.84315
G1 X154.07 Y94.29 E26.85843
G1 X154.16 Y94.13 E26.86763
G1 X153.53 Y92.96 E26.93399
G1 X153.33 Y92.71 E26.94976
G1 X153.09 Y92.60 E26.96318
G1 X152.92 Y92.60 E26.97171
G1 X153.03 Y92.35 E26.98545
G1 X151.96 Y91.04 E27.07010
G1 X151.71 Y90.93 E27.08354
G1 X151.32 Y90.93 E27.10329
G1 X151.45 Y90.57 E27.12222
G1 X149.93 Y89.32 E27.22033
G1 X149.73 Y89.25 E27.23070
G1 X148.90 Y89.25 E27.27191
G1 X149.02 Y88.78 E27.29609
G1 X147.31 Y87.88 E27.39259
G1 X146.29 Y87.58 E27.44594
G1 X137.71 Y87.59 E27.87380
G1 X136.70 Y87.91 E27.92652
G1 X135.06 Y88.78 E28.01914
G1 X135.18 Y89.25 E28.04332
G1 X134.35 Y89.25 E28.08458
G1 X134.16 Y89.32 E28.09494
G1 X132.64 Y90.57 E28.19306
G1 X132.77 Y90.93 E28.21198
G1 X132.37 Y90.93 E28.23179
G1 X132.12 Y91.04 E28.24523
G1 X131.05 Y92.35 E28.32981
G1 X131.17 Y92.60 E28.34356
G1 X131.00 Y92.60 E28.35214
G1 X130.75 Y92.71 E28.36555
G1 X130.52 Y93.01 E28.38429
G1 F2400 E23.88429
G0 F1980 X134.78 Y96.37
G1 F2400 E28.38429
G1 F1140 X135.04 Y96.22 E28.39950
G1 X135.19 Y95.93 E28.41560
G1 X135.99 Y94.96 E28.47828
G1 X135.87 Y94.71 E28.49196
G1 X136.07 Y94.71 E28.50188
G1 X136.27 Y94.64 E28.51227
G1 X137.79 Y93.39 E28.61039
G1 X137.66 Y93.04 E28.62926
G1 X138.55 Y93.04 E28.67361
G1 X138.69 Y93.00 E28.68097
G1 X138.89 Y92.90 E28.69208
G1 X140.44 Y92.43 E28.77286
G1 X142.04 Y92.27 E28.85336
G1 X143.65 Y92.43 E28.93397
G1 X145.19 Y92.90 E29.01443
G1 X145.39 Y93.00 E29.02572
G1 X145.54 Y93.04 E29.03308
G1 X146.43 Y93.04 E29.07748
G1 X146.30 Y93.39 E29.09635
G1 X147.82 Y94.64 E29.19447
G1 X148.01 Y94.71 E29.20485
G1 X148.21 Y94.71 E29.21463
G1 X148.09 Y94.96 E29.22831
G1 X148.89 Y95.93 E29.29102
G1 X149.04 Y96.21 E29.30702
G1 X149.30 Y96.37 E29.32235
G1 X149.21 Y96.53 E29.33148
G1 X149.65 Y97.36 E29.37818
G1 X149.79 Y97.82 E29.40262
G1 X149.99 Y97.97 E29.41443
G1 X149.88 Y98.11 E29.42309
G1 X150.12 Y98.90 E29.46453
G1 X150.17 Y99.42 E29.49076
G1 X150.32 Y99.56 E29.50061
G1 X150.20 Y99.69 E29.50951
G1 X150.28 Y100.51 E29.55066
G1 X150.23 Y101.01 E29.57598
G1 X150.35 Y101.15 E29.58488
G1 X150.20 Y101.28 E29.59477
G1 X150.12 Y102.12 E29.63677
G1 X149.98 Y102.60 E29.66176
G1 X150.08 Y102.74 E29.67053
G1 X149.89 Y102.88 E29.68240
G1 X149.65 Y103.66 E29.72311
G1 X149.38 Y104.17 E29.75212
G1 X149.48 Y104.33 E29.76128
G1 X149.21 Y104.49 E29.77656
G1 X148.89 Y105.08 E29.81033
G1 X148.35 Y105.74 E29.85279
G1 X148.47 Y105.99 E29.86649
G1 X148.30 Y105.99 E29.87502
G1 X148.05 Y106.11 E29.88850
G1 X147.85 Y106.36 E29.90464
G1 X146.85 Y107.36 E29.97533
G1 X146.98 Y107.66 E29.99150
G1 X146.69 Y107.66 E30.00587
G1 X146.47 Y107.76 E30.01788
G1 X145.20 Y109.04 E30.10780
G1 X145.33 Y109.34 E30.12393
G1 X145.04 Y109.34 E30.13829
G1 X144.82 Y109.43 E30.15030
G1 X143.55 Y110.71 E30.24023
G1 X143.68 Y111.01 E30.25635
G1 X143.39 Y111.01 E30.27072
G1 X143.17 Y111.10 E30.28273
G1 X142.04 Y112.25 E30.36274
G1 X140.92 Y111.10 E30.44275
G1 X140.69 Y111.01 E30.45476
G1 X140.40 Y111.01 E30.46918
G1 X140.53 Y110.71 E30.48530
G1 X139.26 Y109.43 E30.57519
G1 X139.04 Y109.34 E30.58720
G1 X138.75 Y109.34 E30.60161
G1 X138.88 Y109.04 E30.61774
G1 X137.61 Y107.76 E30.70763
G1 X137.39 Y107.66 E30.71963
G1 X137.10 Y107.66 E30.73400
G1 X137.23 Y107.36 E30.75013
G1 X136.22 Y106.34 E30.82192
G1 X136.03 Y106.11 E30.83699
G1 X135.79 Y105.99 E30.85047
G1 X135.61 Y105.99 E30.85910
G1 X135.73 Y105.74 E30.87273
G1 X135.19 Y105.08 E30.91510
G1 X134.87 Y104.49 E30.94898
G1 X134.61 Y104.33 E30.96415
G1 X134.70 Y104.17 E30.97344
G1 X134.43 Y103.66 E31.00241
G1 X134.19 Y102.88 E31.04308
G1 X134.00 Y102.74 E31.05495
G1 X134.11 Y102.60 E31.06372
G1 X133.96 Y102.12 E31.08869
G1 X133.88 Y101.28 E31.13065
G1 X133.73 Y101.15 E31.14057
G1 X133.85 Y101.01 E31.14958
G1 X133.80 Y100.51 E31.17485
G1 X133.88 Y99.69 E31.21591
G1 X133.76 Y99.56 E31.22488
G1 X133.91 Y99.42 E31.23480
G1 X133.96 Y98.90 E31.26087
G1 X134.20 Y98.11 E31.30236
G1 X134.10 Y97.97 E31.31106
G1 X134.29 Y97.82 E31.32290
G1 X134.43 Y97.36 E31.34703
G1 X134.87 Y96.53 E31.39395
G1 X134.78 Y96.37 E31.40319
G1 F2400 E26.90319
G0 F1980 X142.87 Y77.83
G1 F2400 E31.40319
G1 F1140 X144.61 Y77.61 E31.49084
G1 X145.10 Y77.47 E31.51585
G1 X145.51 Y77.24 E31.53949
G1 X145.71 Y77.07 E31.55286
G1 X145.88 Y76.87 E31.56597
G1 X146.02 Y76.64 E31.57885
G1 X146.12 Y76.40 E31.59205
G1 X146.18 Y76.13 E31.60605
G1 X146.21 Y75.84 E31.62065
G1 X146.18 Y75.31 E31.64713
G1 X146.12 Y75.06 E31.65987
G1 X146.04 Y74.82 E31.67225
G1 X145.91 Y74.58 E31.68598
G1 X145.68 Y74.28 E31.70520
G1 X145.62 Y74.22 E31.70936
G1 X145.31 Y74.00 E31.72837
G1 X145.26 Y73.97 E31.73117
G1 X145.19 Y73.93 E31.73512
G1 X146.19 Y71.84 E31.85076
G1 X145.81 Y71.27 E31.88496
G1 X144.90 Y71.33 E31.93058
G1 X144.62 Y71.51 E31.94718
G1 X143.57 Y73.78 E32.07195
G1 X143.50 Y73.79 E32.07572
G1 X143.23 Y71.83 E32.17462
G1 X142.84 Y71.52 E32.19955
G1 X141.99 Y71.64 E32.24207
G1 X141.69 Y72.04 E32.26693
G1 X142.48 Y77.53 E32.54364
G1 X142.87 Y77.83 E32.56813
G0 F1980 X150.43 Y77.31
G1 F1140 X150.72 Y77.69 E32.59221
G1 X153.52 Y78.17 E32.73403
G1 X153.92 Y77.89 E32.75815
G1 X154.09 Y77.11 E32.79822
G1 X153.80 Y76.69 E32.82361
G1 X152.07 Y76.39 E32.91111
G1 X152.17 Y75.68 E32.94662
G1 X153.64 Y75.93 E33.02069
G1 X154.04 Y75.65 E33.04507
G1 X154.19 Y74.86 E33.08518
G1 X153.90 Y74.44 E33.11049
G1 X152.38 Y74.19 E33.18759
G1 X152.52 Y73.18 E33.23841
G1 X154.57 Y73.54 E33.34229
G1 X154.97 Y73.27 E33.36651
G1 X155.14 Y72.48 E33.40662
G1 X154.85 Y72.06 E33.43215
G1 X151.55 Y71.50 E33.59915
G1 X151.14 Y71.80 E33.62464
G1 X150.43 Y77.31 E33.90148
G0 F1980 X150.73 Y77.68
G0 X158.77 Y79.62
G1 F1140 X158.97 Y79.95 E33.92042
G1 X159.59 Y80.23 E33.95434
G1 X159.96 Y80.16 E33.97328
G1 X164.01 Y75.99 E34.26294
G1 X163.91 Y75.39 E34.29313
G1 X163.13 Y74.99 E34.33677
G1 X162.74 Y75.05 E34.35632
G1 X161.61 Y76.19 E34.43647
G1 X160.64 Y75.75 E34.48979
G1 X160.74 Y74.15 E34.56994
G1 X160.53 Y73.82 E34.58943
G1 X159.73 Y73.51 E34.63227
G1 X159.22 Y73.83 E34.66249
